web/workspace/public/assets/products/dadi-cdn-bg.svg

<svg viewBox="0 0 116.25 157.67" xmlns="http://www.w3.org/2000/svg"><path d="m116.25 126.18v-94.68a11 11 0 0 0 -5.5-9.53l-35.5-20.5a11 11 0 0 0 -11 0l-58.75 33.92a11 11 0 0 0 -5.5 9.53v67.83a11 11 0 0 0 5.5 9.53l58.75 33.92a11 11 0 0 0 11 0l35.5-20.5a11 11 0 0 0 5.5-9.52zm-46.5 6.35-23.25-13.43-23.25-13.42v-26.84-26.84l23.25-13.43 23.25-13.42 23.25 13.42v26.78l-23.14-13.35-23.25 13.41v26.85l23.25 13.42 23.14-13.36v26.78z" fill="#f1f1f1"/></svg>

<svg id="Layer_1" data-name="Layer 1" xmlns="http://www.w3.org/2000/svg" viewBox="0 0 116.25 157.67"><defs><style>.cls-1{fill:#f1f1f1;}</style></defs><title>Artboard 37</title><path class="cls-1" d="M116.25,126.18V31.5a11,11,0,0,0-5.5-9.53L75.25,1.47a11,11,0,0,0-11,0L5.5,35.39A11,11,0,0,0,0,44.92v67.83a11,11,0,0,0,5.5,9.53L64.25,156.2a11,11,0,0,0,11,0l35.5-20.5A11,11,0,0,0,116.25,126.18Zm-46.5,6.35L46.5,119.1,23.25,105.68V78.84h0V52L46.5,38.57,69.75,25.15,93,38.57h0V65.35L69.86,52h0L46.61,65.41V92.26l23.25,13.42h0L93,92.32V119.1Z"/></svg>
